packages/react/src/components/base/Icon/assets/icon-check.svg

<svg width="24" height="24" viewBox="0 0 24 24" xmlns="http://www.w3.org/2000/svg" fill="currentColor"> <path d="M6.2444 17.6274C5.94575 17.6274 5.69351 17.3211 5.69351 16.9582C5.69351 16.4151 5.24047 15.9752 4.68115 15.9752C4.12182 15.9752 3.66879 16.4151 3.66879 16.9582C3.66879 18.4114 4.82456 19.5934 6.2444 19.5934H6.27561C6.37094 20.0406 6.77842 20.3765 7.26688 20.3765C7.75535 20.3765 8.16282 20.0406 8.25815 19.5934H8.28937C9.71005 19.5934 10.865 18.4114 10.865 16.9582C10.865 16.2939 10.6178 15.6115 10.1867 15.0857C9.69317 14.4844 9.00224 14.1396 8.28937 14.1396H8.27924V12.6627C8.48425 12.7429 8.61248 12.9403 8.61248 13.2033C8.61248 13.7464 9.06551 14.1863 9.62484 14.1863C10.1842 14.1863 10.6372 13.7464 10.6372 13.2033C10.6372 11.8484 9.61809 10.7729 8.27924 10.6664V10.5509C8.27924 10.0078 7.82621 9.56796 7.26688 9.56796C6.70755 9.56796 6.25452 10.0078 6.25452 10.5509V10.6574H6.2444C5.52984 10.6574 4.83975 11.0047 4.35128 11.6101C3.93031 12.1327 3.68819 12.8126 3.68819 13.4761C3.68819 14.9267 4.83469 16.1063 6.24356 16.1063H6.25368V17.6274H6.2444ZM6.2444 14.1404C5.95166 14.1404 5.71375 13.8422 5.71375 13.4761C5.71375 13.0223 6.04446 12.6242 6.2444 12.6242H6.25452V14.1404H6.2444ZM8.27924 16.1063H8.28937C8.4969 16.1063 8.84026 16.5044 8.84026 16.9582C8.84026 17.3211 8.58801 17.6274 8.28937 17.6274H8.27924V16.1063Z"/> <path d="M12.0697 17.3907C11.5104 17.3907 11.0573 17.8306 11.0573 18.3737C11.0573 18.9168 11.5104 19.3566 12.0697 19.3566H13.5511C14.1104 19.3566 14.5635 18.9168 14.5635 18.3737C14.5635 17.8306 14.1104 17.3907 13.5511 17.3907H12.0697Z"/> <path d="M19.357 17.3907H15.9909C15.4316 17.3907 14.9785 17.8306 14.9785 18.3737C14.9785 18.9168 15.4316 19.3566 15.9909 19.3566H19.357C19.9163 19.3566 20.3694 18.9168 20.3694 18.3737C20.3694 17.8306 19.9163 17.3907 19.357 17.3907Z"/> <path d="M19.357 14.912H17.641C17.0817 14.912 16.6287 15.3519 16.6287 15.895C16.6287 16.4381 17.0817 16.8779 17.641 16.8779H19.357C19.9163 16.8779 20.3694 16.4381 20.3694 15.895C20.3694 15.3519 19.9163 14.912 19.357 14.912Z"/> <path d="M11.1662 12.1499C10.9763 12.3342 10.87 12.584 10.87 12.8453V15.4666C10.87 16.0096 11.3231 16.4495 11.8824 16.4495H14.582C14.8503 16.4495 15.1076 16.3463 15.2983 16.162L22.7222 8.95361C23.1179 8.56944 23.1179 7.94771 22.7222 7.56354L20.0226 4.9423C19.8328 4.758 19.5755 4.65479 19.3064 4.65479C19.0373 4.65479 18.78 4.758 18.5901 4.9423L11.1662 12.1499ZM14.1627 14.4828H12.8948V13.2516L17.2817 8.99211L18.5496 10.2233L14.1627 14.4828ZM20.5744 8.25734L19.9813 8.8332L18.7133 7.60204L19.3064 7.02618L20.5744 8.25734Z"/> <path d="M22.0338 10.9023C21.4745 10.9023 21.0215 11.3422 21.0215 11.8853V20.7189H3.57092V9.28946H13.0407C13.6 9.28946 14.0531 8.84958 14.0531 8.30649C14.0531 7.76341 13.6 7.32353 13.0407 7.32353H3.23347C2.30294 7.32353 1.5462 8.0583 1.5462 8.9618V21.0465C1.5462 21.95 2.30294 22.6848 3.23347 22.6848H21.4433C22.357 22.6848 23.0462 21.9803 23.0462 21.0465V11.8853C23.0462 11.3422 22.5932 10.9023 22.0338 10.9023Z"/> </svg>

<svg viewBox="0 0 24 24" xmlns="http://www.w3.org/2000/svg" aria-hidden="true" fill="currentColor"><path d="M6.244 17.627c-.298 0-.55-.306-.55-.669 0-.543-.454-.983-1.013-.983-.56 0-1.012.44-1.012.983 0 1.453 1.156 2.635 2.575 2.635h.032c.095.448.502.784.99.784.49 0 .897-.336.992-.784h.031c1.421 0 2.576-1.182 2.576-2.635 0-.664-.247-1.346-.678-1.872-.494-.602-1.185-.946-1.898-.946h-.01v-1.477c.205.08.333.277.333.54 0 .543.454.983 1.013.983.56 0 1.012-.44 1.012-.983 0-1.355-1.019-2.43-2.358-2.537v-.115c0-.543-.453-.983-1.012-.983-.56 0-1.012.44-1.012.983v.106h-.01c-.715 0-1.405.348-1.894.953a3.03 3.03 0 0 0-.663 1.866c0 1.45 1.147 2.63 2.556 2.63h.01v1.521zm0-3.487c-.292 0-.53-.298-.53-.664 0-.454.33-.852.53-.852h.01v1.516zm2.035 1.966h.01c.208 0 .551.398.551.852 0 .363-.252.67-.55.67h-.01zm3.79 1.285c-.559 0-1.012.44-1.012.983s.453.983 1.013.983h1.481c.56 0 1.012-.44 1.012-.983s-.453-.983-1.012-.983zm7.288 0h-3.366c-.56 0-1.012.44-1.012.983s.453.983 1.012.983h3.366c.56 0 1.012-.44 1.012-.983s-.453-.983-1.012-.983m0-2.479h-1.716c-.56 0-1.012.44-1.012.983s.453.983 1.012.983h1.716c.56 0 1.012-.44 1.012-.983s-.453-.983-1.012-.983m-8.19-2.762a.97.97 0 0 0-.297.695v2.622c0 .543.453.982 1.012.982h2.7c.268 0 .526-.103.716-.287l7.424-7.208a.96.96 0 0 0 0-1.39l-2.7-2.622a1.03 1.03 0 0 0-.716-.287c-.269 0-.526.103-.716.287zm2.996 2.333h-1.268v-1.231l4.387-4.26 1.268 1.231zm6.411-6.226-.593.576-1.268-1.231.593-.576z"/><path d="M22.034 10.902c-.56 0-1.012.44-1.012.983v8.834H3.57V9.289h9.47c.559 0 1.012-.44 1.012-.983s-.453-.982-1.012-.982H3.233c-.93 0-1.687.734-1.687 1.638v12.085c0 .903.757 1.638 1.687 1.638h18.21c.914 0 1.603-.705 1.603-1.638v-9.162c0-.543-.453-.983-1.012-.983"/></svg>
